X: 100049
M: C|
L: 1/8
K: E
(ug>a) | (b>^a)b>g (e>g)f>e | (d>e)f>d (B>c)B>A | (G>B)e>B (c>A)f>e | (d>e)f>d
|: (ud>e) | f>B~B2 (f>B)a>B | g>B~B2 (g>B)b>g | (f>a)g>f (e>d)c>^B | =B2B2 B2(B>A) |
(G>B)e>B (c>A)f>e | (d>B)g>e (e>c)a>f | (g>b)e>g (f>a)d>f | e2e2 e2 :|


